packages/dnb-ui-lib/assets/icons/check_alt_01.svg

<svg width="16" height="16" viewBox="0 0 16 16" fill="none" xmlns="http://www.w3.org/2000/svg">
<g clip-path="url(#clip0)">
<path fill-rule="evenodd" clip-rule="evenodd" d="M15.8283 1.51381C16.0935 1.19559 16.0505 0.722669 15.7323 0.457515C15.414 0.192361 14.9411 0.235383 14.676 0.553607L6.77154 10.0401L6.77152 10.0401C6.69859 10.1276 6.58922 10.1763 6.47538 10.1721C6.36154 10.1679 6.25609 10.1111 6.18987 10.0184L6.18985 10.0184L3.7772 6.64108C3.53643 6.30404 3.06801 6.226 2.73096 6.46678C2.39392 6.70755 2.31588 7.17597 2.55666 7.51302L4.96928 10.8903L4.96931 10.8903C5.30565 11.3611 5.84125 11.6495 6.4195 11.6711C6.99776 11.6926 7.55335 11.4449 7.92382 11.0004L7.92388 11.0003L15.8283 1.51381ZM1.4978 8.51729C1.4978 5.34863 4.02831 2.81811 7.19697 2.81811C8.09764 2.81811 8.98387 3.01185 9.72786 3.38385C10.0983 3.56909 10.5489 3.41893 10.7341 3.04844C10.9193 2.67796 10.7692 2.22745 10.3987 2.04221C9.4229 1.55432 8.30272 1.31811 7.19697 1.31811C3.19989 1.31811 -0.00219727 4.5202 -0.00219727 8.51729C-0.00219727 12.5144 3.19989 15.7165 7.19697 15.7165C11.1941 15.7165 14.3961 12.5144 14.3961 8.51729C14.3961 7.95098 14.3157 7.39902 14.2426 6.96084C14.1745 6.55226 13.7881 6.27625 13.3795 6.34434C12.971 6.41244 12.6949 6.79886 12.763 7.20744C12.8333 7.62914 12.8961 8.08039 12.8961 8.51729C12.8961 11.6859 10.3656 14.2165 7.19697 14.2165C4.02831 14.2165 1.4978 11.6859 1.4978 8.51729Z" fill="black"/>
</g>
<defs>
<clipPath id="clip0">
<path d="M0 0H16V16H0V0Z" fill="white"/>
</clipPath>
</defs>
</svg>

<svg width="16" height="16" viewBox="0 0 16 16" fill="none" xmlns="http://www.w3.org/2000/svg"><g clip-path="url(#clip0)"><path fill-rule="evenodd" clip-rule="evenodd" d="M15.828 1.514a.75.75 0 10-1.152-.96L6.772 10.04a.368.368 0 01-.582-.022L3.777 6.641a.75.75 0 10-1.22.872l2.412 3.377a1.868 1.868 0 002.955.11l7.904-9.486zM1.498 8.517c0-3.168 2.53-5.699 5.699-5.699.9 0 1.787.194 2.53.566a.75.75 0 00.672-1.342c-.976-.488-2.096-.724-3.202-.724a7.172 7.172 0 00-7.2 7.2c0 3.996 3.203 7.198 7.2 7.198 3.997 0 7.2-3.202 7.2-7.199a9.54 9.54 0 00-.154-1.556.75.75 0 10-1.48.246c.07.422.133.873.133 1.31 0 3.169-2.53 5.7-5.699 5.7s-5.7-2.531-5.7-5.7z" fill="#000"/></g><defs/></svg>
